component-icons/svg/tabstrip-mobile.svg

<?xml version="1.0" encoding="utf-8"?>
<!-- Generator: Adobe Illustrator 24.2.3, SVG Export Plug-In . SVG Version: 6.00 Build 0)  -->
<svg version="1.1" id="Layer_1" xmlns="http://www.w3.org/2000/svg" xmlns:xlink="http://www.w3.org/1999/xlink" x="0px" y="0px"
	 width="24px" height="24px" viewBox="0 0 24 24" enable-background="new 0 0 24 24" xml:space="preserve">
<path d="M2,0v24h8v-4h12V0H2z M20,18H8v4H4V2h16V18z M18,24h4v-2h-4V24z M12,24h4v-2h-4V24z M14,10H6v2h6L14,10z M18,6H6v2h10L18,6z
	"/>
</svg>

<svg id="Layer_1" data-name="Layer 1" xmlns="http://www.w3.org/2000/svg" viewBox="0 0 24 24">
  <defs>
    <style>
      .cls-1 {
        fill: gray;
      }
    </style>
  </defs>
  <title>tabstrip-mobile</title>
  <path class="cls-1" d="M2,0V24h8V20H22V0ZM20,18H8v4H4V2H20Zm-2,6h4V22H18Zm-6,0h4V22H12Zm2-14H6v2h6Zm4-4H6V8H16Z"/>
</svg>
